X: 447
%
U:~=!turn!
T: Mr. John Shaw Stewarts
C:Neil Gows collection
O:Scotland
B:Keith Norman MacDonald : "The Skye collection of the best reels & strathspeys extant" : 1887
Z:Ralph Palmer
R:Strathspey
M:C
L:1/8
K:Gm
G | DG-G>c (B/c/d) Tc>B | A>Fc>F d>Fc>F | DG-G>c d>=efd | c<Af>A {/A}G2 G :| A | Gg-g>a {ga}b2 ag | f>ca>c f>ca>f |
dgg>a {ga}b2 ag | {/g}f>d{/d}c>A {/A}G2 G>A | Gg-g>a b2 ag | fcf>g {fg}a>g fa | g>af>g d>fc>f | A>Fc>B {/A}G2 G |]


